X: 21
M: C|
L: 1/8
K: D
V: 1
|: Acea |\
K: Dm
|:"Mineur"DFAd |\
|: FGAB |\
V: 2 clef=bass middle=d
d4 |\
K: Dm
|:"Mineur"d4 |\
a4 e4 | Aagf edc=B | A4 :||: f4 | A4 B4 | c4 c4 |
c4 c4 | f4 f4 | d4 f4 | b4 a4 | b2g2 a2A2 | d4 :|


